X:2%Issue 4 : tuplets
T:Bovaglie's Plaid
C:J Scott Skinner
M:C
L:1/8
Q:100
K:A
A|"D"(FE/C/) "A"E>F A>B c>A|"D"dc/B/ "A"{B}(ec) "Bm"{c}BA (F/A)
z/|"A"(FE/C/) (E>F) A>B"D"c>d|
"A"ec/A/ "E7"G/d/z/G/  "A"{G}A2 A::e|"A"ag/a/  (3 ecA "D"(3 fdA "A"(3
ecA|(3(CEA) (3(cea) "E"{cd}c>B(B>e)|
"A"ag/a/ (3ecA "D"(3(FAd) "A"(3 (EAc)|"Bm"(3(DFB) "E7"(E/d/)z/G/ "A"{G}(A2
A) e|"A"{g}ab/a/g/f/ (3ecA "D"(3fdA "A"(3ecA|
"A"ae/d/ cB/A/ "E"B>BB A/G/|"D"(FG/A/) "A"(EG/A/) "Bm"(DG/A/) "A"{CD}(3
CB,A,|(3(ECA,) "E7"G,/D/z/G,/ "A"(A,2 A,)|]

